src/svg/05-social/pj_serp.svg

<svg xmlns="http://www.w3.org/2000/svg" width="24" height="24"><path fill-rule="evenodd" d="M19.721 4h-2.108L16.28 8h-4.892l1.333-4h-2.108L9.279 8H5v2h3.612l-1.333 4H3v2h3.612l-1.333 4h2.108l1.333-4h4.892l-1.333 4h2.108l1.333-4H20v-2h-3.612l1.333-4H22V8h-3.612l1.333-4zm-5.442 10H9.388l1.333-4h4.892l-1.334 4z"/></svg>

<svg xmlns="http://www.w3.org/2000/svg" width="24" height="24" viewBox="0 0 24 24"><g><path  d="M19.721,4 L17.613,4 L16.28,8 L11.388,8 L12.721,4 L10.613,4 L9.279,8 L5,8 L5,10 L8.612,10 L7.279,14 L3,14 L3,16 L6.612,16 L5.279,20 L7.387,20 L8.72,16 L13.612,16 L12.279,20 L14.387,20 L15.72,16 L20,16 L20,14 L16.388,14 L17.721,10 L22,10 L22,8 L18.388,8 L19.721,4 Z M14.279,14 L9.388,14 L10.721,10 L15.613,10 L14.279,14 Z"/></g></svg>
